front/public/static/landing/logos/gray/whatnot.svg

<svg fill="none" height="300" viewBox="0 0 600 300" width="600" xmlns="http://www.w3.org/2000/svg" xmlns:xlink="http://www.w3.org/1999/xlink"><clipPath id="a"><path d="m48 101h504v98h-504z"/></clipPath><g clip-path="url(#a)"><path d="m145.651 149.637c0 37.603-11.054 48.636-48.7268 48.636-37.673 0-48.7269-11.033-48.7269-48.636 0-37.604 11.0539-48.637 48.7269-48.637 37.6728 0 48.7268 11.033 48.7268 48.637z" fill="#fff"/><g fill="#364153"><path d="m96.9327 101c-37.6815 0-48.7354 11.033-48.7354 48.645s11.0539 48.645 48.7354 48.645c37.6813 0 48.7353-11.033 48.7353-48.645s-11.054-48.645-48.7353-48.645zm27.0173 54.914-2.836 4.427c-5.891 9.191-9.099 11.802-12.984 11.802-4.105 0-6.339-2.011-11.8236-10.873l-3.2079-5.179c-.6686-1.115-1.8621-.633-1.5658.634l.5586 2.272c1.9806 8.001-.9733 13.146-5.9332 13.146-3.8427 0-6.8981-2.121-13.5423-12.174l-2.7593-4.173c-4.215-6.37-5.7809-9.682-5.7809-13.999 0-5.433 3.9527-9.868 10.0298-9.868 4.6637 0 7.643 2.087 10.2583 7.181l.6687 1.301c.5247.972 1.4135.896 1.752 0l.4825-1.267c1.862-4.875 4.8837-7.223 9.6235-7.223 4.7396 0 7.9056 2.348 9.7336 7.223l.482 1.301c.339.853 1.304.929 1.752 0l.669-1.343c2.573-5.137 5.485-7.181 10.148-7.181 6.077 0 10.072 4.427 10.072 9.867 0 4.317-1.675 7.629-5.814 14.109z"/><path d="m201.929 152.872c-.39-1.461-1.566-1.461-1.956 0l-6.635 26.401h-18.054l-11.418-53.089h18.248l4.588 26.595c.195 1.268 1.76 1.268 2.048.102l7.025-26.697h12.688l6.932 26.494c.389 1.462 1.955 1.462 2.15.093l4.485-26.595h16.107l-11.418 53.089h-17.96l-6.83-26.401z"/><path d="m241.159 179.273v-66.251h18.054v22.016c0 1.166 1.362 1.462 2.15.194 4.486-7.113 8.294-10.036 15.717-10.036 10.445 0 15.718 7.502 15.718 19.194v34.875h-18.054v-24.644c0-7.012-1.566-11.785-7.414-11.785-5.273 0-8.1 3.996-8.1 11.591v24.838h-18.054z"/><path d="m337.394 179.273-1.761-7.502c-.296-1.36-1.269-1.36-2.243.093-3.419 5.162-7.219 8.381-15.125 8.381-10.927 0-21.083-9.454-21.083-27.567s10.148-27.474 21.083-27.474c7.906 0 11.714 3.219 15.125 8.381.974 1.462 1.956 1.462 2.243.101l1.761-7.502h15.421v53.089zm-12.104-38.972c-5.078 0-9.073 4.191-9.073 12.47s4.004 12.368 9.073 12.368c5.07 0 9.074-4.384 9.074-12.469s-4.004-12.369-9.074-12.369z"/><path d="m363.937 141.476h-6.542v-15.292c7.126-.093 9.758-1.951 11.324-11.396h13.272v11.396h13.567v15.292h-13.567v18.214c0 4.478 2.827 6.429 7.025 6.429 2.344 0 4.68-.684 6.542-1.656v14.709c-3.123.971-6.635 1.563-10.833 1.563-11.909 0-20.788-6.624-20.788-20.065z"/><path d="m400.146 179.273v-53.097h15.81l1.955 8.862c.297 1.166 1.659 1.462 2.438.194 4.486-7.113 8.295-10.036 15.718-10.036 10.444 0 15.717 7.502 15.717 19.194v34.875h-18.054v-24.644c0-7.012-1.557-11.785-7.414-11.785-5.273 0-8.1 3.996-8.1 11.591v24.838h-18.054z"/><path d="m456.169 153.16c0-17.632 11.714-28.446 28.109-28.446 16.394 0 28.108 10.814 28.108 28.446 0 17.631-11.714 27.566-28.108 27.566-16.395 0-28.109-10.518-28.109-27.566zm28.109-12.859c-5.079 0-9.074 4.191-9.074 12.47s4.004 12.368 9.074 12.368 9.073-4.384 9.073-12.469-4.003-12.369-9.073-12.369z"/><path d="m519.8 141.476h-6.542v-15.292c7.126-.093 9.759-1.951 11.325-11.396h13.271v11.396h13.568v15.292h-13.568v18.214c0 4.478 2.827 6.429 7.025 6.429 2.345 0 4.689-.684 6.543-1.656v14.709c-3.123.971-6.636 1.563-10.834 1.563-11.909 0-20.788-6.624-20.788-20.065z"/></g></g></svg>

<svg width="600" height="300" viewBox="0 0 600 300" fill="none" xmlns="http://www.w3.org/2000/svg">
<g clip-path="url(#clip0_2202_7069)">
<path d="M145.651 149.637C145.651 187.24 134.597 198.273 96.9242 198.273C59.2512 198.273 48.1973 187.24 48.1973 149.637C48.1973 112.033 59.2512 101 96.9242 101C134.597 101 145.651 112.033 145.651 149.637Z" fill="white"/>
<path d="M96.9327 101C59.2512 101 48.1973 112.033 48.1973 149.645C48.1973 187.257 59.2512 198.29 96.9327 198.29C134.614 198.29 145.668 187.257 145.668 149.645C145.668 112.033 134.614 101 96.9327 101ZM123.95 155.914L121.114 160.341C115.223 169.532 112.015 172.143 108.13 172.143C104.025 172.143 101.791 170.132 96.3064 161.27L93.0985 156.091C92.4299 154.976 91.2364 155.458 91.5327 156.725L92.0913 158.997C94.0719 166.998 91.118 172.143 86.1581 172.143C82.3154 172.143 79.26 170.022 72.6158 159.969L69.8565 155.796C65.6415 149.426 64.0756 146.114 64.0756 141.797C64.0756 136.364 68.0283 131.929 74.1054 131.929C78.7691 131.929 81.7484 134.016 84.3637 139.11L85.0324 140.411C85.5571 141.383 86.4459 141.307 86.7844 140.411L87.2669 139.144C89.1289 134.269 92.1506 131.921 96.8904 131.921C101.63 131.921 104.796 134.269 106.624 139.144L107.106 140.445C107.445 141.298 108.41 141.374 108.858 140.445L109.527 139.102C112.1 133.965 115.012 131.921 119.675 131.921C125.752 131.921 129.747 136.348 129.747 141.788C129.747 146.105 128.072 149.417 123.933 155.897L123.95 155.914Z" fill="#364153"/>
<path d="M201.929 152.872C201.539 151.411 200.363 151.411 199.973 152.872L193.338 179.273H175.284L163.866 126.184H182.114L186.702 152.779C186.897 154.047 188.462 154.047 188.75 152.881L195.775 126.184H208.463L215.395 152.678C215.784 154.14 217.35 154.14 217.545 152.771L222.03 126.176H238.137L226.719 179.265H208.759L201.929 152.864V152.872Z" fill="#364153"/>
<path d="M241.159 179.273V113.022H259.213V135.038C259.213 136.204 260.575 136.5 261.363 135.232C265.849 128.119 269.657 125.196 277.08 125.196C287.525 125.196 292.798 132.698 292.798 144.39V179.265H274.744V154.621C274.744 147.609 273.178 142.836 267.33 142.836C262.057 142.836 259.23 146.832 259.23 154.427V179.265H241.176L241.159 179.273Z" fill="#364153"/>
<path d="M337.394 179.273L335.633 171.771C335.337 170.411 334.364 170.411 333.39 171.864C329.971 177.026 326.171 180.245 318.265 180.245C307.338 180.245 297.182 170.791 297.182 152.678C297.182 134.565 307.33 125.204 318.265 125.204C326.171 125.204 329.979 128.423 333.39 133.585C334.364 135.047 335.346 135.047 335.633 133.686L337.394 126.184H352.815V179.273H337.394ZM325.29 140.301C320.212 140.301 316.217 144.492 316.217 152.771C316.217 161.05 320.221 165.139 325.29 165.139C330.36 165.139 334.364 160.755 334.364 152.67C334.364 144.585 330.36 140.301 325.29 140.301Z" fill="#364153"/>
<path d="M363.937 141.476H357.395V126.184C364.521 126.091 367.153 124.233 368.719 114.788H381.991V126.184H395.558V141.476H381.991V159.69C381.991 164.168 384.818 166.119 389.016 166.119C391.36 166.119 393.696 165.435 395.558 164.463V179.172C392.435 180.143 388.923 180.735 384.725 180.735C372.816 180.735 363.937 174.111 363.937 160.67V141.476Z" fill="#364153"/>
<path d="M400.146 179.273V126.176H415.956L417.911 135.038C418.208 136.204 419.57 136.5 420.349 135.232C424.835 128.119 428.644 125.196 436.067 125.196C446.511 125.196 451.784 132.698 451.784 144.39V179.265H433.73V154.621C433.73 147.609 432.173 142.836 426.316 142.836C421.043 142.836 418.216 146.832 418.216 154.427V179.265H400.162L400.146 179.273Z" fill="#364153"/>
<path d="M456.169 153.16C456.169 135.528 467.883 124.714 484.278 124.714C500.672 124.714 512.386 135.528 512.386 153.16C512.386 170.791 500.672 180.726 484.278 180.726C467.883 180.726 456.169 170.208 456.169 153.16ZM484.278 140.301C479.199 140.301 475.204 144.492 475.204 152.771C475.204 161.05 479.208 165.139 484.278 165.139C489.348 165.139 493.351 160.755 493.351 152.67C493.351 144.585 489.348 140.301 484.278 140.301Z" fill="#364153"/>
<path d="M519.8 141.476H513.258V126.184C520.384 126.091 523.017 124.233 524.583 114.788H537.854V126.184H551.422V141.476H537.854V159.69C537.854 164.168 540.681 166.119 544.879 166.119C547.224 166.119 549.568 165.435 551.422 164.463V179.172C548.299 180.143 544.786 180.735 540.588 180.735C528.679 180.735 519.8 174.111 519.8 160.67V141.476Z" fill="#364153"/>
</g>
<defs>
<clipPath id="clip0_2202_7069">
<rect width="504" height="98" fill="white" transform="translate(48 101)"/>
</clipPath>
</defs>
</svg>
